icons/svg/16x16/phone retro/filled.svg

<svg width="16" height="16" fill="none" xmlns="http://www.w3.org/2000/svg">
  <path fill-rule="evenodd" clip-rule="evenodd" d="M11 10c0-1.104-1.343-2-3-2s-3 .896-3 2 1.343 2 3 2 3-.896 3-2zm4 2v.438c0 .946-.656 1.767-1.582 1.958C12.053 14.675 10.852 15 8 15c-2.852 0-4.053-.325-5.418-.604A1.992 1.992 0 011 12.438V12c0-2 2-3 4-5V5h6v2c2 2 4 3 4 5zm1-7.775v1.559C16 6.555 15.552 7 15 7h-2a1 1 0 01-1-1V3.935C10 3 6 3 4 3.935V6a1 1 0 01-1 1H1a1 1 0 01-1-1V4.227c0-.74.454-1.398 1.146-1.657C2.721 1.982 5.302 1 8 1c2.698 0 5.279.982 6.854 1.57A1.76 1.76 0 0116 4.225z" fill="#000"/>
</svg>

<svg xmlns="http://www.w3.org/2000/svg" width="16" height="16" viewBox="0 0 16 16">
  <path fill-rule="evenodd" d="M11,10 C11,8.896 9.657,8 8,8 C6.343,8 5,8.896 5,10 C5,11.104 6.343,12 8,12 C9.657,12 11,11.104 11,10 M15,12 L15,12.438 C15,13.384 14.344,14.205 13.418,14.396 C12.053,14.675 10.852,15 8,15 C5.148,15 3.947,14.675 2.582,14.396 C1.656,14.205 1,13.384 1,12.438 L1,12 C1,10 3,9 5,7 L5,5 L11,5 L11,7 C13,9 15,10 15,12 M16,4.225 L16,5.784 C16,6.555 15.552,7 15,7 L13,7 C12.448,7 12,6.553 12,6 L12,3.935 C10,3 6,3 4,3.935 L4,6 C4,6.553 3.552,7 3,7 L1,7 C0.448,7 0,6.553 0,6 L0,4.227 C0,3.487 0.454,2.829 1.146,2.57 C2.721,1.982 5.302,1 8,1 C10.698,1 13.279,1.982 14.854,2.57 C15.546,2.829 16,3.485 16,4.225"/>
</svg>
